packages/Snapp/src/SimCardIcon/index.svg

<?xml version="1.0" encoding="UTF-8"?>
<svg width="24px" height="24px" viewBox="0 0 24 24" version="1.1" xmlns="http://www.w3.org/2000/svg" xmlns:xlink="http://www.w3.org/1999/xlink">
    <title>Icons/24/Sim Card</title>
    <g id="Icons/24/Sim-Card" stroke="none" stroke-width="1" fill="none" fill-rule="evenodd">
        <rect id="Container" fill-opacity="0" fill="#D8D8D8" fill-rule="nonzero" x="0" y="0" width="24" height="24"></rect>
        <path d="M13.875,2 C14.1451002,2 14.4037139,2.10926114 14.5919949,2.30292161 L14.5919949,2.30292161 L19.7169949,7.60292161 C19.898472,7.78958379 20,8.03966038 20,8.3 L20,8.3 L20,19 C20,20.6568542 18.6568542,22 17,22 L17,22 L7,22 C5.34314575,22 4,20.6568542 4,19 L4,19 L4,5 C4,3.34314575 5.34314575,2 7,2 L7,2 Z M13.453,4 L7,4 C6.44771525,4 6,4.44771525 6,5 L6,5 L6,19 C6,19.5522847 6.44771525,20 7,20 L7,20 L17,20 C17.5522847,20 18,19.5522847 18,19 L18,19 L18,8.706 L13.453,4 Z M14,10 C15.1045695,10 16,10.8954305 16,12 L16,12 L16,16 C16,17.1045695 15.1045695,18 14,18 L14,18 L10,18 C8.8954305,18 8,17.1045695 8,16 L8,16 L8,12 C8,10.8954305 8.8954305,10 10,10 L10,10 Z M14,12 L10,12 L10,16 L14,16 L14,12 Z" id="Combined-Shape" fill="#404040"></path>
    </g>
</svg>

<svg viewBox="0 0 24 24" xmlns="http://www.w3.org/2000/svg" fill="currentColor" focusable="false">
  <path d="M13.875 2a1 1 0 01.717.303l5.125 5.3A1 1 0 0120 8.3V19a3 3 0 01-3 3H7a3 3 0 01-3-3V5a3 3 0 013-3zm-.422 2H7a1 1 0 00-1 1v14a1 1 0 001 1h10a1 1 0 001-1V8.706L13.453 4zM14 10a2 2 0 012 2v4a2 2 0 01-2 2h-4a2 2 0 01-2-2v-4a2 2 0 012-2zm0 2h-4v4h4v-4z" fill="none"/>
</svg>
